apps/ui-icons/svgs/outbound_link.svg

<svg viewBox="0 0 24 24" width="24" height="24"  fill="none" xmlns="http://www.w3.org/2000/svg">
<path d="M5 6C5 5.44772 5.44772 5 6 5H8C8.55228 5 9 4.55228 9 4C9 3.44772 8.55228 3 8 3H6C4.34315 3 3 4.34315 3 6V18C3 19.6569 4.34315 21 6 21H18C19.6569 21 21 19.6569 21 18V16C21 15.4477 20.5523 15 20 15C19.4477 15 19 15.4477 19 16V18C19 18.5523 18.5523 19 18 19H6C5.44772 19 5 18.5523 5 18V6Z" fill="#171D26"/>
<path d="M10.5146 12.0711L17.5856 5L12.9999 5.00023C12.4476 5.00023 11.9999 4.55252 11.9999 4.00023C11.9999 3.44795 12.4476 3.00023 12.9999 3.00023L19.9999 3C20.5521 3 20.9999 3.44771 20.9999 4L21 11C21 11.5523 20.5522 12 20 12C19.4477 12 19 11.5523 19 11L18.9999 6.41421L11.9288 13.4853C11.5383 13.8758 10.9051 13.8758 10.5146 13.4853C10.124 13.0948 10.124 12.4616 10.5146 12.0711Z" fill="#171D26"/>
</svg>

<svg xmlns="http://www.w3.org/2000/svg" width="24" height="24" fill="none" viewBox="0 0 24 24">
  <path fill="#171D26" d="M5 6a1 1 0 0 1 1-1h2a1 1 0 0 0 0-2H6a3 3 0 0 0-3 3v12a3 3 0 0 0 3 3h12a3 3 0 0 0 3-3v-2a1 1 0 1 0-2 0v2a1 1 0 0 1-1 1H6a1 1 0 0 1-1-1V6Z"/>
  <path fill="#171D26" d="M10.515 12.071 17.585 5H13a1 1 0 1 1 0-2h7a1 1 0 0 1 1 1v7a1 1 0 0 1-2 0V6.414l-7.071 7.071a1 1 0 0 1-1.414-1.414Z"/>
</svg>
